remix/Device/signal-wifi-2-fill.svg

<svg viewBox="0 0 24 24" fill="currentColor" xmlns="http://www.w3.org/2000/svg"><path d="M12.0005 3C16.2849 3 20.2196 4.49683 23.3104 6.99607L12.0005 21L0.689941 6.99671C3.78078 4.49709 7.71583 3 12.0005 3ZM12.0005 5C8.97296 5 6.07788 5.84185 3.57997 7.39179L6.75851 11.327C8.31685 10.4807 10.1026 10 12.0005 10C13.8983 10 15.6838 10.4806 17.242 11.3267L20.4204 7.39132C17.9226 5.84167 15.0278 5 12.0005 5Z"/></svg>

<svg viewBox="0 0 24 24" xmlns="http://www.w3.org/2000/svg"><path fill="none" d="M0 0h24v24H0Z"/><path d="M12 3c4.28 0 8.22 1.49 11.31 3.99L12 20.99 .69 6.98C3.78 4.48 7.71 2.99 12 2.99Zm0 2c-3.03 0-5.923.84-8.42 2.39l3.17 3.93c1.55-.85 3.34-1.33 5.24-1.33 1.89 0 3.683.48 5.241 1.327l3.17-3.94c-2.5-1.55-5.4-2.39-8.42-2.39Z"/></svg>
